icons/apps/scalable/brackets.svg

<?xml version="1.0" encoding="UTF-8" standalone="no"?>
<!-- Created with Inkscape (http://www.inkscape.org/) -->

<svg
   xmlns:dc="http://purl.org/dc/elements/1.1/"
   xmlns:cc="http://creativecommons.org/ns#"
   xmlns:rdf="http://www.w3.org/1999/02/22-rdf-syntax-ns#"
   xmlns:svg="http://www.w3.org/2000/svg"
   xmlns="http://www.w3.org/2000/svg"
   xmlns:sodipodi="http://sodipodi.sourceforge.net/DTD/sodipodi-0.dtd"
   xmlns:inkscape="http://www.inkscape.org/namespaces/inkscape"
   width="128"
   height="128"
   id="svg2"
   version="1.1"
   inkscape:version="0.48.5 r10040"
   viewBox="0 0 36.124445 36.124445"
   sodipodi:docname="brackets.svg">
  <defs
     id="defs4" />
  <sodipodi:namedview
     id="base"
     pagecolor="#ffffff"
     bordercolor="#666666"
     borderopacity="1.0"
     inkscape:pageopacity="0.0"
     inkscape:pageshadow="2"
     inkscape:zoom="2.0250677"
     inkscape:cx="147.86233"
     inkscape:cy="-22.647789"
     inkscape:document-units="px"
     inkscape:current-layer="layer1"
     showgrid="false"
     units="px"
     borderlayer="true"
     inkscape:showpageshadow="false"
     inkscape:window-width="1366"
     inkscape:window-height="744"
     inkscape:window-x="0"
     inkscape:window-y="24"
     inkscape:window-maximized="1">
    <sodipodi:guide
       position="8.9999996,38.999975"
       orientation="30.000028,0"
       id="guide3266" />
    <sodipodi:guide
       position="8.9999996,8.9999467"
       orientation="0,30.000001"
       id="guide3268" />
    <sodipodi:guide
       position="39.000001,8.9999467"
       orientation="-30.000028,0"
       id="guide3270" />
    <sodipodi:guide
       position="39.000001,38.999975"
       orientation="0,-30.000001"
       id="guide3272" />
    <sodipodi:guide
       position="3.9999989,44.000052"
       orientation="39.999965,0"
       id="guide3303" />
    <sodipodi:guide
       position="3.9999989,4.0000862"
       orientation="0,40.000001"
       id="guide3305" />
    <sodipodi:guide
       position="44,4.0000862"
       orientation="-39.999965,0"
       id="guide3307" />
    <sodipodi:guide
       position="44,44.000052"
       orientation="0,-40.000001"
       id="guide3309" />
    <sodipodi:guide
       position="15.000001,32.999883"
       orientation="17.999952,0"
       id="guide3313" />
    <sodipodi:guide
       position="15.000001,14.999931"
       orientation="0,17.999999"
       id="guide3315" />
    <sodipodi:guide
       position="33,14.999931"
       orientation="-17.999952,0"
       id="guide3317" />
    <sodipodi:guide
       position="33,32.999883"
       orientation="0,-17.999999"
       id="guide3319" />
    <sodipodi:guide
       position="19.000001,18.999992"
       orientation="3.9999533,0"
       id="guide3352" />
    <sodipodi:guide
       position="19.000001,15.000039"
       orientation="0,4.0000006"
       id="guide3354" />
    <sodipodi:guide
       position="23.000002,15.000039"
       orientation="-3.9999533,0"
       id="guide3356" />
    <sodipodi:guide
       position="23.000002,18.999992"
       orientation="0,-4.0000006"
       id="guide3358" />
    <sodipodi:guide
       position="19.000001,32.999991"
       orientation="3.9999533,0"
       id="guide3360" />
    <sodipodi:guide
       position="19.000001,29.000038"
       orientation="0,4.0000006"
       id="guide3362" />
    <sodipodi:guide
       position="23.000002,29.000038"
       orientation="-3.9999533,0"
       id="guide3364" />
    <sodipodi:guide
       position="23.000002,32.999991"
       orientation="0,-4.0000006"
       id="guide3366" />
    <sodipodi:guide
       position="24.999999,32.999991"
       orientation="3.9999533,0"
       id="guide3368" />
    <sodipodi:guide
       position="24.999999,29.000038"
       orientation="0,4.0000006"
       id="guide3370" />
    <sodipodi:guide
       position="28.999999,29.000038"
       orientation="-3.9999533,0"
       id="guide3372" />
    <sodipodi:guide
       position="28.999999,32.999991"
       orientation="0,-4.0000006"
       id="guide3374" />
    <sodipodi:guide
       position="24.999999,18.999992"
       orientation="3.9999533,0"
       id="guide3376" />
    <sodipodi:guide
       position="24.999999,15.000039"
       orientation="0,4.0000006"
       id="guide3378" />
    <sodipodi:guide
       position="28.999999,15.000039"
       orientation="-3.9999533,0"
       id="guide3380" />
    <sodipodi:guide
       position="28.999999,18.999992"
       orientation="0,-4.0000006"
       id="guide3382" />
  </sodipodi:namedview>
  <metadata
     id="metadata7">
    <rdf:RDF>
      <cc:Work
         rdf:about="">
        <dc:format>image/svg+xml</dc:format>
        <dc:type
           rdf:resource="http://purl.org/dc/dcmitype/StillImage" />
        <dc:title />
      </cc:Work>
    </rdf:RDF>
  </metadata>
  <g
     inkscape:label="Capa 1"
     inkscape:groupmode="layer"
     id="layer1"
     transform="translate(0,-260.87556)">
    <g
       id="g4096"
       transform="matrix(2.8181817,0,0,2.8181817,-0.92363583,-538.93693)">
      <rect
         style="fill:#1893d2;fill-opacity:1;stroke:none"
         id="rect3284"
         width="11.28889"
         height="11.28889"
         x="1.1288886"
         y="284.58221" />
      <rect
         y="285.99335"
         x="2.54"
         height="8.4666672"
         width="8.4666672"
         id="rect3297"
         style="fill:#f8f8f8;fill-opacity:1;stroke:none" />
      <path
         id="rect3332"
         transform="matrix(0.28222223,0,0,0.28222223,0,283.45334)"
         d="m 15,15 0,18 4,0 4,0 0,-4 -4,0 0,-10 4,0 0,-4 -4,0 -4,0 z m 10,0 0,4 4,0 0,10 -4,0 0,4 4,0 4,0 0,-18 -4,0 -4,0 z"
         style="fill:#4d4d4d;fill-opacity:1;stroke:none"
         inkscape:connector-curvature="0" />
    </g>
  </g>
</svg>

<?xml version="1.0" encoding="UTF-8" standalone="no"?>
<!-- Created with Inkscape (http://www.inkscape.org/) -->

<svg
   xmlns:dc="http://purl.org/dc/elements/1.1/"
   xmlns:cc="http://creativecommons.org/ns#"
   xmlns:rdf="http://www.w3.org/1999/02/22-rdf-syntax-ns#"
   xmlns:svg="http://www.w3.org/2000/svg"
   xmlns="http://www.w3.org/2000/svg"
   xmlns:sodipodi="http://sodipodi.sourceforge.net/DTD/sodipodi-0.dtd"
   xmlns:inkscape="http://www.inkscape.org/namespaces/inkscape"
   width="48"
   height="48"
   id="svg2"
   version="1.1"
   inkscape:version="0.49 r12742"
   viewBox="0 0 13.546667 13.546667"
   sodipodi:docname="brackets.svg">
  <defs
     id="defs4" />
  <sodipodi:namedview
     id="base"
     pagecolor="#ffffff"
     bordercolor="#666666"
     borderopacity="1.0"
     inkscape:pageopacity="0.0"
     inkscape:pageshadow="2"
     inkscape:zoom="11.455513"
     inkscape:cx="16.141572"
     inkscape:cy="29.495371"
     inkscape:document-units="px"
     inkscape:current-layer="layer1"
     showgrid="false"
     units="px"
     borderlayer="true"
     inkscape:showpageshadow="false"
     inkscape:window-width="1366"
     inkscape:window-height="718"
     inkscape:window-x="-2"
     inkscape:window-y="23"
     inkscape:window-maximized="1">
    <sodipodi:guide
       position="8.9999996,38.999975"
       orientation="30.000028,0"
       id="guide3266" />
    <sodipodi:guide
       position="8.9999996,8.9999467"
       orientation="0,30.000001"
       id="guide3268" />
    <sodipodi:guide
       position="39.000001,8.9999467"
       orientation="-30.000028,0"
       id="guide3270" />
    <sodipodi:guide
       position="39.000001,38.999975"
       orientation="0,-30.000001"
       id="guide3272" />
    <sodipodi:guide
       position="3.9999989,44.000052"
       orientation="39.999965,0"
       id="guide3303" />
    <sodipodi:guide
       position="3.9999989,4.0000862"
       orientation="0,40.000001"
       id="guide3305" />
    <sodipodi:guide
       position="44,4.0000862"
       orientation="-39.999965,0"
       id="guide3307" />
    <sodipodi:guide
       position="44,44.000052"
       orientation="0,-40.000001"
       id="guide3309" />
    <sodipodi:guide
       position="15.000001,32.999883"
       orientation="17.999952,0"
       id="guide3313" />
    <sodipodi:guide
       position="15.000001,14.999931"
       orientation="0,17.999999"
       id="guide3315" />
    <sodipodi:guide
       position="33,14.999931"
       orientation="-17.999952,0"
       id="guide3317" />
    <sodipodi:guide
       position="33,32.999883"
       orientation="0,-17.999999"
       id="guide3319" />
    <sodipodi:guide
       position="19.000001,18.999992"
       orientation="3.9999533,0"
       id="guide3352" />
    <sodipodi:guide
       position="19.000001,15.000039"
       orientation="0,4.0000006"
       id="guide3354" />
    <sodipodi:guide
       position="23.000002,15.000039"
       orientation="-3.9999533,0"
       id="guide3356" />
    <sodipodi:guide
       position="23.000002,18.999992"
       orientation="0,-4.0000006"
       id="guide3358" />
    <sodipodi:guide
       position="19.000001,32.999991"
       orientation="3.9999533,0"
       id="guide3360" />
    <sodipodi:guide
       position="19.000001,29.000038"
       orientation="0,4.0000006"
       id="guide3362" />
    <sodipodi:guide
       position="23.000002,29.000038"
       orientation="-3.9999533,0"
       id="guide3364" />
    <sodipodi:guide
       position="23.000002,32.999991"
       orientation="0,-4.0000006"
       id="guide3366" />
    <sodipodi:guide
       position="24.999999,32.999991"
       orientation="3.9999533,0"
       id="guide3368" />
    <sodipodi:guide
       position="24.999999,29.000038"
       orientation="0,4.0000006"
       id="guide3370" />
    <sodipodi:guide
       position="28.999999,29.000038"
       orientation="-3.9999533,0"
       id="guide3372" />
    <sodipodi:guide
       position="28.999999,32.999991"
       orientation="0,-4.0000006"
       id="guide3374" />
    <sodipodi:guide
       position="24.999999,18.999992"
       orientation="3.9999533,0"
       id="guide3376" />
    <sodipodi:guide
       position="24.999999,15.000039"
       orientation="0,4.0000006"
       id="guide3378" />
    <sodipodi:guide
       position="28.999999,15.000039"
       orientation="-3.9999533,0"
       id="guide3380" />
    <sodipodi:guide
       position="28.999999,18.999992"
       orientation="0,-4.0000006"
       id="guide3382" />
  </sodipodi:namedview>
  <metadata
     id="metadata7">
    <rdf:RDF>
      <cc:Work
         rdf:about="">
        <dc:format>image/svg+xml</dc:format>
        <dc:type
           rdf:resource="http://purl.org/dc/dcmitype/StillImage" />
        <dc:title />
      </cc:Work>
    </rdf:RDF>
  </metadata>
  <g
     inkscape:label="Capa 1"
     inkscape:groupmode="layer"
     id="layer1"
     transform="translate(0,-283.45334)">
    <g
       id="g4096">
      <rect
         style="fill:#1893d2;stroke:none;fill-opacity:1"
         id="rect3284"
         width="11.28889"
         height="11.28889"
         x="1.1288886"
         y="284.58221" />
      <rect
         y="285.99335"
         x="2.54"
         height="8.4666672"
         width="8.4666672"
         id="rect3297"
         style="fill:#f8f8f8;fill-opacity:1;stroke:none" />
      <path
         id="rect3332"
         transform="matrix(0.28222223,0,0,0.28222223,0,283.45334)"
         d="M 15 15 L 15 33 L 19 33 L 23 33 L 23 29 L 19 29 L 19 19 L 23 19 L 23 15 L 19 15 L 15 15 z M 25 15 L 25 19 L 29 19 L 29 29 L 25 29 L 25 33 L 29 33 L 33 33 L 33 15 L 29 15 L 25 15 z "
         style="fill:#4d4d4d;fill-opacity:1;stroke:none" />
    </g>
  </g>
</svg>
